X:1
T:Quicumque vult
T:Quicumque vult
T:John Farmer
T:Source : The Whole Book of Psalms---London---Musical Antiquarian Society---1844. First publication : London---Th.Est(e)---1592 Editor : André Vierendeels (22/08/16).
T:Notes : Original clefs  : C1, C3, C4, F4 Editorial accidentals above tha staff Original note values have been halved except m 3, 8, 13 and 18
T:©
T:©
T:©
C:John Farmer
Z:©
%%score [ 1 [ 2 3 ] 4 ]
L:1/8
Q:1/4=123
M:4/4
K:F
V:1 treble nm="Soprano" snm="S"
V:2 treble-8 nm="Tenor 1" snm="T 1"
V:3 treble-8 nm="Tenor 2" snm="T 2"
V:4 bass nm="Bass" snm="B"
V:1
 A4 c2 d2 | G2 G2 A2 G2 | G8 || F2 G4 F2 | E2 G2 E4 || F2 B4 A2 | G2 F2 G2 G2 | ^F8 || A2 G4 F2 | %9
w: What man so-|e- ver he be|that|sal- va- tion|will ob- tain,|the Ca- tho-|lic be- lief he|must|be- fore all|
 F2 E2 F4 || D2 F4 D2 | G2 F2 G3 G | A8 || A4 A2 G2 | F3 F E4 || B4 A2 G2 | A2 G2 G2 F2 | E8 | %18
w: thing re- tain,|which faith un-|less he ho- ly|keep|and un- de-|fi- led- ly,|with- out all|doubt e- ter- nal-|ly,|
 D2 G3 C F2- | F2 E2 !fermata!F4 |] %20
w: he shall be sure|_ to die.|
V:2
 c4 c2 f2 | e2 e2 f2 d2 | e8 || d2 d4 d2 | ^c2 d2 c4 || d2 f4 f2 | e2 d2 _e2 d2 | d8 || c2 _e4 B2 | %9
w: What man so|e- ver he be|that|sal- va- tion|will ob- tain,|the Ca- tho-|lic be- lief he|must|be- fore all|
 c3 B A4 || B4 c2 B2 | d2 c2 d2 cB | A8 || f4 f2 d2 | c2 A2 c4 || f4 f2 d2 | f2 _e2 e2 c2 | c8 | %18
w: thing re- tain,|which faith un-|less he ho- ly _|keep|and un- de-|fi- led- ly,|with- out all|doubt e- ter- lal-|ly,|
 z2 G2 c3 F | B2 c2 !fermata!A4 |] %20
w: he shall be|sure to die.|
V:3
 F4 A2 B2 | c2 c2 A2 =B2 | c8 || A2 B4 A2 | A2 G2 A4 || A2 d4 c2 | c2 A2 c2 B2 | A8 || A2 B4 F2 | %9
w: What man so|e- ver he be|that|sal- va- tion|will ob- tain,|the Ca- tho-|lic be- lief he|must|be- fore all|
 G2 G2 F4 || F4 F2 F2 | B2 A2 G2 G2 | F8 || c4 c2 B2 | A2 F2 G4 || d4 c2 B2 | A2 c2 B2 A2 | G8 | %18
w: thing re- tain,|which faith un-|less he ho- ly|keep|and un- de-|fi- led- ly,|with- out all|doubt e- ter- nal-|ly,|
 B4 A2 F2 | G2 G2 !fermata!F4 |] %20
w: he shall be|sure to die.|
V:4
 F,,2 F,4 D,2 | C,2 C,2 F,2 G,2 | C,8 || D,2 G,,4 D,2 | A,,2 B,,2 A,,4 || D,2 B,,4 F,2 | %6
w: What man so|e- ver he be|that|sal- va- tion|will ob- tain,|the Ca- tho-|
 C,2 D,2 C,2 G,,2 | D,8 || F,2 _E,4 D,2 | C,2 C,2 F,,4 || B,,4 A,,2 B,,2 | G,,2 A,,2 B,,2 C,2 | %12
w: lic be- lief he|must|be- fore all|thing re- tain,|which faith un-|less he ho- ly|
 F,,8 || F,4 F,,2 G,,2 | A,,2 D,2 C,4 || B,,4 F,2 G,2 | F,2 C,2 _E,2 F,2 | C,8 | G,,4 A,,3 B,, | %19
w: keep|and un- de-|fi- led- ly,|with- out all|doubt e- ter- lal-|ly,|he shall be|
 G,,2 C,2 !fermata!F,,4 |] %20
w: sure to die.|

